img/backstage-k8s.svg

<svg xmlns="http://www.w3.org/2000/svg" id="Layer_1" data-name="Layer 1" viewBox="0 0 250 250"><defs><style>.cls-1{fill:none;stroke:#7df3e1;stroke-linejoin:round;stroke-width:1.25px}</style></defs><path class="cls-1" d="M79.08 24.38v220.68m-15.41-9.31V24.38M189.83 220zM145.5 88.07c-16.61-12.31-5.42-21.25-22-33.56s-27.8-3.37-44.4-15.68v116.3c16.6 12.31 27.79 3.37 44.4 15.68s5.41 21.25 22 33.56 27.76 3.38 44.33 15.63V103.73c-16.55-12.3-27.74-3.36-44.33-15.66zm-7.78 66.36a23.17 23.17 0 01-16.43-6.81l-7 7 7-7a23.16 23.16 0 01-6.8-16.43 23.18 23.18 0 016.8-16.43l-7-7 7 7a23.2 23.2 0 0116.43-6.8 23.16 23.16 0 0116.43 6.8l7-7-7 7a23.15 23.15 0 016.85 16.43 23.13 23.13 0 01-6.81 16.43l7 7-7-7a23.13 23.13 0 01-16.47 6.81z"/><path d="M137.72 124.67V108a23.2 23.2 0 00-16.43 6.8l11.82 11.82a6.5 6.5 0 014.61-1.95zm6.52 6.52H161a23.15 23.15 0 00-6.81-16.43l-11.82 11.82a6.5 6.5 0 011.87 4.61z" class="cls-1"/><path d="M133.11 126.58l-11.82-11.82a23.18 23.18 0 00-6.8 16.43h16.71a6.5 6.5 0 011.91-4.61zm9.22 0l11.82-11.82a23.16 23.16 0 00-16.43-6.8v16.71a6.5 6.5 0 014.61 1.91zm-11.13 4.61h-16.71a23.16 23.16 0 006.8 16.43l11.82-11.82a6.5 6.5 0 01-1.91-4.61zm6.52 6.52v16.72a23.13 23.13 0 0016.43-6.81l-11.82-11.82a6.5 6.5 0 01-4.61 1.91z" class="cls-1"/><path d="M161 131.19h-16.76a6.5 6.5 0 01-1.91 4.61l11.82 11.82a23.13 23.13 0 006.85-16.43zm-27.89 4.61l-11.82 11.82a23.17 23.17 0 0016.43 6.81v-16.72a6.5 6.5 0 01-4.61-1.91zM82.63 16.19a11.26 11.26 0 10-19 8.19 11.23 11.23 0 0015.41 0 11.21 11.21 0 003.59-8.19z" class="cls-1"/></svg>

<svg xmlns="http://www.w3.org/2000/svg" id="Layer_1" width="250" height="250" data-name="Layer 1" viewBox="0 0 250 250"><defs><style>.cls-1{fill:none;stroke:#7df3e1;stroke-linejoin:round;stroke-width:2.5px}</style></defs><polyline points="79.08 24.38 79.08 218.83 79.08 245.06" class="cls-1"/><polyline points="63.67 235.75 63.67 209.52 63.67 24.38" class="cls-1"/><path d="M189.83,220h0l0,0Z" class="cls-1"/><path d="M145.5,88.07c-16.61-12.31-5.42-21.25-22-33.56s-27.8-3.37-44.4-15.68v116.3c16.6,12.31,27.79,3.37,44.4,15.68s5.41,21.25,22,33.56,27.76,3.38,44.33,15.63l0-116.27C173.28,91.43,162.09,100.37,145.5,88.07Z" class="cls-1"/><path d="M137.72,124.67V108a23.2,23.2,0,0,0-16.43,6.8l11.82,11.82A6.5,6.5,0,0,1,137.72,124.67Z" class="cls-1"/><path d="M144.24,131.19H161a23.15,23.15,0,0,0-6.81-16.43l-11.82,11.82A6.5,6.5,0,0,1,144.24,131.19Z" class="cls-1"/><path d="M133.11,126.58l-11.82-11.82a23.18,23.18,0,0,0-6.8,16.43H131.2A6.5,6.5,0,0,1,133.11,126.58Z" class="cls-1"/><path d="M142.33,126.58l11.82-11.82a23.16,23.16,0,0,0-16.43-6.8v16.71A6.5,6.5,0,0,1,142.33,126.58Z" class="cls-1"/><path d="M131.2,131.19H114.49a23.16,23.16,0,0,0,6.8,16.43l11.82-11.82A6.5,6.5,0,0,1,131.2,131.19Z" class="cls-1"/><path d="M137.72,137.71v16.72a23.13,23.13,0,0,0,16.43-6.81L142.33,135.8A6.5,6.5,0,0,1,137.72,137.71Z" class="cls-1"/><path d="M161,131.19H144.24a6.5,6.5,0,0,1-1.91,4.61l11.82,11.82A23.13,23.13,0,0,0,161,131.19Z" class="cls-1"/><path d="M133.11,135.8l-11.82,11.82a23.17,23.17,0,0,0,16.43,6.81V137.71A6.5,6.5,0,0,1,133.11,135.8Z" class="cls-1"/><path d="M82.63,16.19a11.26,11.26,0,1,0-19,8.19h0a11.23,11.23,0,0,0,15.41,0h0A11.21,11.21,0,0,0,82.63,16.19Z" class="cls-1"/><line x1="154.15" x2="161.15" y1="147.62" y2="154.62" class="cls-1"/><line x1="160.96" x2="170.85" y1="131.19" y2="131.19" class="cls-1"/><line x1="154.15" x2="161.15" y1="114.76" y2="107.77" class="cls-1"/><line x1="137.72" x2="137.72" y1="107.96" y2="98.06" class="cls-1"/><line x1="121.29" x2="114.3" y1="114.76" y2="107.77" class="cls-1"/><line x1="114.49" x2="104.6" y1="131.19" y2="131.19" class="cls-1"/><line x1="121.29" x2="114.3" y1="147.62" y2="154.62" class="cls-1"/><line x1="137.72" x2="137.72" y1="154.43" y2="164.32" class="cls-1"/></svg>
